X:1
T:Naelde, naelde goe fyne
T:Naelde, naelde goe fyne
T:Josquin Baston
C:Josquin Baston
%%score [ 1 2 [ 3 4 ] ]
L:1/8
Q:1/4=120
M:2/2
K:F
V:1 treble nm="Soprano" snm="S"
V:2 treble nm="Alto" snm="A"
V:3 treble-8 nm="Tenor 1" snm="T 1"
V:4 treble-8 nm="Tenor 2" snm="T 2"
V:1
 d3 d d2 d2 | d2 dd d4 | d8 | z2 G2 Bd c2 | d2 z4 A2 | Bd c2 d2 A2 | Bd c2 d4 | G2 Ac B2 GG | %8
w: Nael- de, nael- de|goe fy- ne nael-|den,|staen nu dees meys-|kens, staen|nu dees meys- kens, staen|nu dees meys- kens,|staen nu dees meys- kens van|
 G2 FF G4 | z8 | z4 d3 d | ee f2 d4- | d2 f2 e2 d2- | dc B2 A4 | G4 z2 AA | Bc d2 G2 d2 | %16
w: Ant- wer- pen aen,||want met|spin- nen, spin- nen|_ cleyn prof- fyt|_ be- hael- *|den, dus wil-|len- sy tspin- nen, dus|
 d2 dc B2 cc | B2 A2 G2 B2- | B2 A3 G G2- |"^#" G2 F2 G2 G2 | B3 B A2 AA | B2 c2 d4- | d4 z4 | z8 | %24
w: wil- len sy tspin- nen nu|lae- ten staen, nu|_ lae- * *|* ten staen en|met den nay- corf vort|om- me- gaen,|_||
[M:3/2] f8 e4 | d8 B4 | A8 G4 |[M:2/2] A2 AA F2 D2 | z4 z2 d2- | dd B2 AABc | d4 G2 g2 | fe d4 c2 | %32
w: groet en|cleyn al|int ghe-|meyn, om te nay- en,|om|_ te nay- en sy haer ver-|fray- en, sy|haer ver- fray- *|
 d4 z4 | d4 c2 A2 | B2 B2 A2 AA | G2 d2 d2 d2 | f3 e d2 c2- | cB B4 A2 | B4 d2 dA | c2 d2 f2 ff | %40
w: en,|by den sen|sin ick ducht dat den|twyn in deyn dhaer|lien _ _ fa-|* * lie- ren|sal, want twil al|nay- en, want twil al|
 e2 d2 dddd | d2 B2 B2 BB | A2 G2 G2 F2 | G4 B2 BB | A2 G2 G2 F2 | G8 |] %46
w: nay- en, nay- en, nay- en,|nay- en, want twil al|nay- en o- ver-|al, want twil al|nay- en o- ver-|al.|
V:2
 z4 G3 G | G2 G2 G2 GG | G4 G4 | z2 D2 GF E2 | D2 z4 F2 | GG A2 A2 F2 | GG A2 A2 F2 | ED F2 D2 D2 | %8
w: Nael- de,|nael- de goe fy- ne|nael- den,|staen nu dees meys-|kens, staen|nu dees meys- kens, staen|nu dees meys- kens, staen|nu dees meys- kens van|
 E2 DD B,4- | B,4 z4 | z4 z2 G2- | GGAA B2 G2 | B2 A2 G2 B2- |"^#" BA G4 F2 | G4 DDEF | %15
w: Ant- wer- pen aen,-||want|_ met spin- nen, spin- nen|cleyn prof- fyt be-|* * hael- *|den, dus wil- len sy|
 G2 D2 z2 B2- | B2 A3 G G2- |"^#" G2 F2 G2 G2 | F2 FF D2 _EE | D2 D2 B,2 D2 | G3 G F2 FD | %21
w: tspin- nen nu|_ lae- * *|* ten staen, dus|wil- len sy tspin- nen nu|la- ten staen en|met den nay- corf vort|
 G2 E2 D4- | D4 z4 | z8 |[M:3/2] A8 A4 | F8 F4 | F8 D4 |[M:2/2] D2 D3 C B,2 | G,2 G,2 B,C D2- | %29
w: om- me- gaen,|_||groet en|cleyn al|int ghe-|meyn, om te nay-|en sy haer ver- fray-|
 D2 G,2 z2 D2- | DD B,2 G,G,B,C | D2 A,2 z4 | F4 G2 A2 | D2 D2 E2 FF | G4 z4 | z4 F4 | %36
w: * en, om|_ te nay- en sy haer ver-|fray- en,|by den sen|sin ick ducht dat den|twyn,|in|
 F2 F2 F2 A2 | G2 G2 F4- | F4 F2 FF | E2 D2 A2 Ac | c2 A2 ABAB | A2 G2 G2 GF | F2 D2 D2 D2 | %43
w: deyn dhaer lien fa-|lie- ren sal,|_ want twil al|nay- en, want twil al|nay- en, nay- en, nay- en|nay- en, want twil al|nay- en o- ver-|
 B,4 G2 GF | F2 D2 D2 D2 |"^-natural" B,8 |] %46
w: al, want twil al|nay- en o- ver-|al.|
V:3
 z8 | z4 d3 d | d2 d2 d2 dd | d2 d2 z2 c2 | gf e2 d2 d2 | dd e2 f2 d2 | dd e2 f2 d2 | cB A2 G2 B2 | %8
w: |Nael- de,|nael- de goe fy- ne|nael- den, staen|nu dees meys- kens, staen|nu dees meys- kens, staen|nu dees meys- kens, staen|nu dees meys- kens van|
 c2 AA G4 | d3 d ee f2 | d2 d4 G2 | B2 c2 BABc | d2 AA cc d2 | G4 z4 | ddef g2 c2 | z2 dd ef g2 | %16
w: Ant- wer- pen aen,|want met spin- nen, spin-|nen cleyn prof-|fyt be- hael- * * *|den, dus wil- len sy tspin-|nen,|dus wil- len sy tspin- nen,|dus wil- len sy tspin-|
 d2 f2 g2 c2 | d4 z2 d2 | d2 dc B2 cc | B2 A2 G4- | G4 z4 | z4 z2 A2 | B3 B A2 AA | B2 c2 d4 | %24
w: nen nu lae- ten|staen, dus|wil- len sy tspin- nen nu|lae- ten staen,|_|en|met den nay- corf vort|om- me- gaen,|
[M:3/2] d8 c4 | d8 d4 | c8 B4 |[M:2/2] A4 z2 d2- | dd B2 G4 | g3 g f2 d2 | G2 Bc d2 G2 | %31
w: groet en|cleyn al|int ghe-|meyn, om|_ te nay- en,|om te nay- en|sy haer ver- fray- en,|
 A2 f3 f e2 | d4 z4 | z2 B2 c2 d2 | G2 d2 e2 ff | g4 z2 d2 | d2 d2 f3 e |"^b" d2 e2 c2 c2 | B4 z4 | %39
w: sy haer ver- fray-|en,|by den sen|sin ick ducht dat den|twyn in|deyn dhaer- lien _|_ fa- lie- ren|sal,|
 z4 f2 fa | g2 f2 fgfg | f2 d2 d2 dd | c2 B2 A2 A2 | G4 d2 dd | c2 B2 A2 A2 | G8 |] %46
w: want twil al|nay- en, nay- en, nay- en,|nay- en, want twil al-|nay- en o- ver-|al, want twil al|nay- en o- ver-|al.|
V:4
 z8 | G3 G G2 G2 | G2 GG G4 | G4 z2 A2 | Bd c2 d2 D2 | GB A2 D2 D2 | GB A2 D2 D2 | EG F2 G2 G2 | %8
w: |Nael- de, nael- de|goe fy- ne nael-|den, staen|nu dees meys- kens, staen|nu dees meys- kens, staen|nu dees meys- kens, staen|nu dees meys- kens van|
 C2 DD G4 | z2 G3 GAA | B2 G2 B3 A | G2 F2 G4 | D4 z4 | z2 d2 d2 dc | B2 cc B2 A2 | G4 z4 | z8 | %17
w: Ant- wer- pen aen,|want met spin- nen|cleyn prof- fyt _|_ be- hael-|den,|dus wil- len sy|tspin- nen nu lae- ten|staen,||
 z2 DD EF G2 | D2 F2 G2 C2 | D4 z4 | z2 G2 d4 | z4 z2 D2 | G3 G F2 FD | G2 E2 D4 |[M:3/2] D8 A4 | %25
w: dus wil- len sy tspin-|nen nu lae- ten|staen,|en met,|en|met den nay- corf vort|om- me- gaen,|groet en|
 B8 B4 | F8 G4 |[M:2/2] D4 z4 |"^#" z2 d3 d B2 | GGBc d2 G2 | z2 G3 G _E2 | DDFG A4 | D2 d2 c2 A2 | %33
w: cleyn al|int ghe-|meyn,|om te nay-|en, sy- haer ver- fray- en,|om te nay-|en, sy haer ver- fray-|en, by den sen|
 B4 z4 | z2 B2 c2 d2 | G2 G2 B2 Bc | d2 D2 D2 F2 |"^b" G2 E2 F2 F2 | B,4 z4 |"^#" z4 d2 dA | %40
w: sin,|by den sen|sin ick ducht dat den|twyn in deyn dhaer|lien fa- lie- ren|sal,|want twil al|
 c2 d2 dGdG |"^#" d2 G2 G2 GD | F2 G2 D2 D2 | G4 G2 GD | F2 G2 D2 D2 | G8 |] %46
w: nay- en, nay- en, nay- en,|nay- en, want twil al|nay- en o- ver-|al, want twil al|nay- en o- ver-|al.|

